resources/svg/regular/grid-horizontal.svg

<svg xmlns="http://www.w3.org/2000/svg" fill="currentColor" stroke="none" viewBox="0 0 24 24"><path d="M10 7h4v4h-4zm6 0h4v4h-4zM4 7h4v4H4zm6 6h4v4h-4zm6 0h4v4h-4zM4 13h4v4H4z"/></svg>

<svg xmlns="http://www.w3.org/2000/svg" fill="currentColor" stroke="none" viewBox="0 0 24 24"><path d="M10 7H14V11H10zM16 7H20V11H16zM4 7H8V11H4zM10 13H14V17H10zM16 13H20V17H16zM4 13H8V17H4z"/></svg>
